X:83
T:Petronella
C:Traditional
M:4/4
L:1/8
Q:1/8=420
K:D
AG|:F2AF E2AF|D2D2 D2FA|d2cd e2d2|cdec ABAG|
F2AF E2AF|D2D2 D2FA|d2cd e2c2|1 d6AG:|2 d6dA|
|F2fd A2af|g2gf efed|cdec Aceg|f2fd AdAF|
D2fd A2af|g2gf efed|cdec Agec:|d2d2 d4|
